modules/hawcons-filled/icons/icon-25-key.svg

<?xml version="1.0" encoding="UTF-8" standalone="no"?>
<svg width="32px" height="32px" viewBox="0 0 32 32" version="1.1" xmlns="http://www.w3.org/2000/svg" xmlns:xlink="http://www.w3.org/1999/xlink" xmlns:sketch="http://www.bohemiancoding.com/sketch/ns">
    <!-- Generator: Sketch 3.0.3 (7891) - http://www.bohemiancoding.com/sketch -->
    <title>icon 25 key</title>
    <desc>Created with Sketch.</desc>
    <defs></defs>
    <g id="Page-1" stroke="none" stroke-width="1" fill="none" fill-rule="evenodd" sketch:type="MSPage">
        <g id="icon-25-key" sketch:type="MSArtboardGroup" fill="#929292">
            <path d="M13.008518,22 L11.508518,23.5 L11.508518,23.5 L14.008518,26 L11.008518,29 L8.50851798,26.5 L6.63305475,28.3754632 C5.79169774,29.2168202 4.42905085,29.2205817 3.5909158,28.3824466 L3.62607133,28.4176022 C2.78924,27.5807709 2.79106286,26.2174551 3.63305475,25.3754632 L15.7904495,13.2180685 C15.2908061,12.2545997 15.008518,11.1602658 15.008518,10 C15.008518,6.13400656 18.1425245,3 22.008518,3 C25.8745114,3 29.008518,6.13400656 29.008518,10 C29.008518,13.8659934 25.8745114,17 22.008518,17 C20.8482521,17 19.7539183,16.7177118 18.7904495,16.2180685 L18.7904495,16.2180685 L16.008518,19 L18.008518,21 L15.008518,24 L13.008518,22 L13.008518,22 L13.008518,22 Z M22.008518,14 C24.2176571,14 26.008518,12.2091391 26.008518,10 C26.008518,7.79086089 24.2176571,6 22.008518,6 C19.7993789,6 18.008518,7.79086089 18.008518,10 C18.008518,12.2091391 19.7993789,14 22.008518,14 L22.008518,14 Z" id="key" sketch:type="MSShapeGroup"></path>
        </g>
    </g>
</svg>

<svg width="32" height="32" xmlns="http://www.w3.org/2000/svg"><path d="M13.009 22l-1.5 1.5 2.5 2.5-3 3-2.5-2.5-1.876 1.875a2.152 2.152 0 0 1-3.042.007l.035.036a2.152 2.152 0 0 1 .007-3.043L15.79 13.218a7 7 0 1 1 3 3L16.01 19l2 2-3 3-2-2zm9-8a4 4 0 1 0 0-8 4 4 0 0 0 0 8z" fill="#929292" fill-rule="evenodd"/></svg>
